X: 7028
T: Childgrove
R: barndance
M: 4/4
K: Aminor
E2 A2 A3 B|c4 Ae|d3 c BA|B3 A GF E2|
E2 A2 A2 B2|c3 B A2 e2|d3 c BcB^G|A4:|
e2 c2 cdec|d2 B2 Bc d2|c2 A2- AB cA|BcB^G E3 ^D|
E2 A2 A2 B2|c3 B A2 e2|d3 c BcB^G|A4:|

